images/3232965.svg

<?xml version="1.0" encoding="UTF-8"?>
<svg xmlns="http://www.w3.org/2000/svg" xmlns:xlink="http://www.w3.org/1999/xlink" width="300pt" height="300pt" viewBox="0 0 300 300" version="1.1">
<defs>
<g>
<symbol overflow="visible" id="glyph0-0">
<path style="stroke:none;" d="M 0.453125 1.59375 L 0.453125 -6.34375 L 4.953125 -6.34375 L 4.953125 1.59375 Z M 0.953125 1.09375 L 4.453125 1.09375 L 4.453125 -5.84375 L 0.953125 -5.84375 Z M 0.953125 1.09375 "/>
</symbol>
<symbol overflow="visible" id="glyph0-1">
<path style="stroke:none;" d="M 0.890625 -6.5625 L 2.078125 -6.5625 L 4.984375 -1.078125 L 4.984375 -6.5625 L 5.84375 -6.5625 L 5.84375 0 L 4.65625 0 L 1.75 -5.484375 L 1.75 0 L 0.890625 0 Z M 0.890625 -6.5625 "/>
</symbol>
<symbol overflow="visible" id="glyph0-2">
<path style="stroke:none;" d="M 0.890625 -6.5625 L 1.765625 -6.5625 L 1.765625 -3.875 L 5 -3.875 L 5 -6.5625 L 5.890625 -6.5625 L 5.890625 0 L 5 0 L 5 -3.125 L 1.765625 -3.125 L 1.765625 0 L 0.890625 0 Z M 0.890625 -6.5625 "/>
</symbol>
<symbol overflow="visible" id="glyph0-3">
<path style="stroke:none;" d="M 3.546875 -5.953125 C 2.898438 -5.953125 2.382812 -5.710938 2 -5.234375 C 1.625 -4.753906 1.4375 -4.101562 1.4375 -3.28125 C 1.4375 -2.445312 1.625 -1.789062 2 -1.3125 C 2.382812 -0.832031 2.898438 -0.59375 3.546875 -0.59375 C 4.191406 -0.59375 4.703125 -0.832031 5.078125 -1.3125 C 5.453125 -1.789062 5.640625 -2.445312 5.640625 -3.28125 C 5.640625 -4.101562 5.453125 -4.753906 5.078125 -5.234375 C 4.703125 -5.710938 4.191406 -5.953125 3.546875 -5.953125 Z M 3.546875 -6.6875 C 4.460938 -6.6875 5.195312 -6.375 5.75 -5.75 C 6.300781 -5.132812 6.578125 -4.3125 6.578125 -3.28125 C 6.578125 -2.238281 6.300781 -1.410156 5.75 -0.796875 C 5.195312 -0.179688 4.460938 0.125 3.546875 0.125 C 2.617188 0.125 1.878906 -0.179688 1.328125 -0.796875 C 0.773438 -1.410156 0.5 -2.238281 0.5 -3.28125 C 0.5 -4.3125 0.773438 -5.132812 1.328125 -5.75 C 1.878906 -6.375 2.617188 -6.6875 3.546875 -6.6875 Z M 3.546875 -6.6875 "/>
</symbol>
</g>
</defs>
<g id="surface43145">
<rect x="0" y="0" width="300" height="300" style="fill:rgb(100%,100%,100%);fill-opacity:1;stroke:none;"/>
<path style="fill:none;stroke-width:1.2;stroke-linecap:butt;stroke-linejoin:miter;stroke:rgb(0%,0%,0%);stroke-opacity:1;stroke-miterlimit:10;" d="M 35.25 108.015625 L 56.222656 104.441406 "/>
<path style="fill:none;stroke-width:1.2;stroke-linecap:butt;stroke-linejoin:miter;stroke:rgb(0%,0%,0%);stroke-opacity:1;stroke-miterlimit:10;" d="M 56.222656 104.441406 L 63.011719 112.632812 "/>
<path style="fill:none;stroke-width:1.2;stroke-linecap:butt;stroke-linejoin:miter;stroke:rgb(0%,0%,100%);stroke-opacity:1;stroke-miterlimit:10;" d="M 63.011719 112.632812 L 69.804688 120.820312 "/>
<path style="fill:none;stroke-width:1.2;stroke-linecap:butt;stroke-linejoin:miter;stroke:rgb(0%,0%,100%);stroke-opacity:1;stroke-miterlimit:10;" d="M 69.804688 120.820312 L 80.289062 119.03125 "/>
<path style="fill:none;stroke-width:1.2;stroke-linecap:butt;stroke-linejoin:miter;stroke:rgb(0%,0%,0%);stroke-opacity:1;stroke-miterlimit:10;" d="M 80.289062 119.03125 L 90.777344 117.246094 "/>
<path style=" stroke:none;fill-rule:nonzero;fill:rgb(100%,100%,100%);fill-opacity:1;" d="M 62.804688 115.320312 L 76.804688 115.320312 L 76.804688 126.320312 L 62.804688 126.320312 Z M 62.804688 115.320312 "/>
<g style="fill:rgb(0%,0%,100%);fill-opacity:1;">
  <use xlink:href="#glyph0-1" x="62.804688" y="123.983398"/>
  <use xlink:href="#glyph0-2" x="69.782227" y="123.983398"/>
</g>
<path style="fill:none;stroke-width:1.2;stroke-linecap:butt;stroke-linejoin:miter;stroke:rgb(0%,0%,0%);stroke-opacity:1;stroke-miterlimit:10;" d="M 90.777344 117.246094 L 94.472656 107.273438 "/>
<path style="fill:none;stroke-width:1.2;stroke-linecap:butt;stroke-linejoin:miter;stroke:rgb(0%,0%,100%);stroke-opacity:1;stroke-miterlimit:10;" d="M 94.472656 107.273438 L 98.167969 97.296875 "/>
<path style="fill:none;stroke-width:1.2;stroke-linecap:butt;stroke-linejoin:miter;stroke:rgb(0%,0%,0%);stroke-opacity:1;stroke-miterlimit:10;" d="M 96.210938 116.992188 L 99.167969 109.011719 "/>
<path style="fill:none;stroke-width:1.2;stroke-linecap:butt;stroke-linejoin:miter;stroke:rgb(0%,0%,100%);stroke-opacity:1;stroke-miterlimit:10;" d="M 99.167969 109.011719 L 102.125 101.03125 "/>
<path style="fill:none;stroke-width:1.2;stroke-linecap:butt;stroke-linejoin:miter;stroke:rgb(0%,0%,100%);stroke-opacity:1;stroke-miterlimit:10;" d="M 104.359375 133.625 L 97.566406 125.433594 "/>
<path style="fill:none;stroke-width:1.2;stroke-linecap:butt;stroke-linejoin:miter;stroke:rgb(0%,0%,0%);stroke-opacity:1;stroke-miterlimit:10;" d="M 97.566406 125.433594 L 90.777344 117.246094 "/>
<path style="fill:none;stroke-width:1.2;stroke-linecap:butt;stroke-linejoin:miter;stroke:rgb(0%,0%,100%);stroke-opacity:1;stroke-miterlimit:10;" d="M 98.167969 97.296875 L 108.65625 95.511719 "/>
<path style="fill:none;stroke-width:1.2;stroke-linecap:butt;stroke-linejoin:miter;stroke:rgb(0%,0%,0%);stroke-opacity:1;stroke-miterlimit:10;" d="M 108.65625 95.511719 L 119.140625 93.722656 "/>
<path style=" stroke:none;fill-rule:nonzero;fill:rgb(100%,100%,100%);fill-opacity:1;" d="M 95.167969 91.796875 L 102.167969 91.796875 L 102.167969 102.796875 L 95.167969 102.796875 Z M 95.167969 91.796875 "/>
<g style="fill:rgb(0%,0%,100%);fill-opacity:1;">
  <use xlink:href="#glyph0-1" x="95.167969" y="100.459961"/>
</g>
<path style="fill:none;stroke-width:1.2;stroke-linecap:butt;stroke-linejoin:miter;stroke:rgb(0%,0%,0%);stroke-opacity:1;stroke-miterlimit:10;" d="M 119.140625 93.722656 L 132.722656 110.101562 "/>
<path style="fill:none;stroke-width:1.2;stroke-linecap:butt;stroke-linejoin:miter;stroke:rgb(0%,0%,0%);stroke-opacity:1;stroke-miterlimit:10;" d="M 116.648438 98.558594 L 127.511719 111.660156 "/>
<path style="fill:none;stroke-width:1.2;stroke-linecap:butt;stroke-linejoin:miter;stroke:rgb(0%,0%,0%);stroke-opacity:1;stroke-miterlimit:10;" d="M 132.722656 110.101562 L 125.332031 130.050781 "/>
<path style="fill:none;stroke-width:1.2;stroke-linecap:butt;stroke-linejoin:miter;stroke:rgb(0%,0%,100%);stroke-opacity:1;stroke-miterlimit:10;" d="M 153.695312 106.527344 L 143.210938 108.3125 "/>
<path style="fill:none;stroke-width:1.2;stroke-linecap:butt;stroke-linejoin:miter;stroke:rgb(0%,0%,0%);stroke-opacity:1;stroke-miterlimit:10;" d="M 143.210938 108.3125 L 132.722656 110.101562 "/>
<path style="fill:none;stroke-width:1.2;stroke-linecap:butt;stroke-linejoin:miter;stroke:rgb(0%,0%,0%);stroke-opacity:1;stroke-miterlimit:10;" d="M 125.332031 130.050781 L 114.84375 131.835938 "/>
<path style="fill:none;stroke-width:1.2;stroke-linecap:butt;stroke-linejoin:miter;stroke:rgb(0%,0%,100%);stroke-opacity:1;stroke-miterlimit:10;" d="M 114.84375 131.835938 L 104.359375 133.625 "/>
<path style="fill:none;stroke-width:1.2;stroke-linecap:butt;stroke-linejoin:miter;stroke:rgb(0%,0%,0%);stroke-opacity:1;stroke-miterlimit:10;" d="M 122.394531 125.472656 L 114.003906 126.902344 "/>
<path style="fill:none;stroke-width:1.2;stroke-linecap:butt;stroke-linejoin:miter;stroke:rgb(0%,0%,100%);stroke-opacity:1;stroke-miterlimit:10;" d="M 114.003906 126.902344 L 105.613281 128.332031 "/>
<path style="fill:none;stroke-width:1.2;stroke-linecap:butt;stroke-linejoin:miter;stroke:rgb(0%,0%,0%);stroke-opacity:1;stroke-miterlimit:10;" d="M 125.332031 130.050781 L 132.121094 138.238281 "/>
<path style="fill:none;stroke-width:1.2;stroke-linecap:butt;stroke-linejoin:miter;stroke:rgb(0%,0%,100%);stroke-opacity:1;stroke-miterlimit:10;" d="M 132.121094 138.238281 L 138.910156 146.425781 "/>
<path style=" stroke:none;fill-rule:nonzero;fill:rgb(100%,100%,100%);fill-opacity:1;" d="M 101.359375 128.125 L 108.359375 128.125 L 108.359375 139.125 L 101.359375 139.125 Z M 101.359375 128.125 "/>
<g style="fill:rgb(0%,0%,100%);fill-opacity:1;">
  <use xlink:href="#glyph0-1" x="101.359375" y="136.788086"/>
</g>
<path style="fill:none;stroke-width:1.2;stroke-linecap:butt;stroke-linejoin:miter;stroke:rgb(0%,0%,100%);stroke-opacity:1;stroke-miterlimit:10;" d="M 138.910156 146.425781 L 149.398438 144.640625 "/>
<path style="fill:none;stroke-width:1.2;stroke-linecap:butt;stroke-linejoin:miter;stroke:rgb(0%,0%,0%);stroke-opacity:1;stroke-miterlimit:10;" d="M 149.398438 144.640625 L 159.882812 142.855469 "/>
<path style="fill:none;stroke-width:1.2;stroke-linecap:butt;stroke-linejoin:miter;stroke:rgb(0%,0%,100%);stroke-opacity:1;stroke-miterlimit:10;" d="M 138.910156 146.425781 L 135.214844 156.402344 "/>
<path style="fill:none;stroke-width:1.2;stroke-linecap:butt;stroke-linejoin:miter;stroke:rgb(0%,0%,0%);stroke-opacity:1;stroke-miterlimit:10;" d="M 135.214844 156.402344 L 131.519531 166.375 "/>
<path style=" stroke:none;fill-rule:nonzero;fill:rgb(100%,100%,100%);fill-opacity:1;" d="M 135.910156 140.925781 L 142.910156 140.925781 L 142.910156 151.925781 L 135.910156 151.925781 Z M 135.910156 140.925781 "/>
<g style="fill:rgb(0%,0%,100%);fill-opacity:1;">
  <use xlink:href="#glyph0-1" x="135.910156" y="149.588867"/>
</g>
<path style="fill:none;stroke-width:1.2;stroke-linecap:butt;stroke-linejoin:miter;stroke:rgb(0%,0%,0%);stroke-opacity:1;stroke-miterlimit:10;" d="M 157.957031 144.453125 L 164.75 152.640625 "/>
<path style="fill:none;stroke-width:1.2;stroke-linecap:butt;stroke-linejoin:miter;stroke:rgb(100%,0%,0%);stroke-opacity:1;stroke-miterlimit:10;" d="M 164.75 152.640625 L 171.539062 160.828125 "/>
<path style="fill:none;stroke-width:1.2;stroke-linecap:butt;stroke-linejoin:miter;stroke:rgb(0%,0%,0%);stroke-opacity:1;stroke-miterlimit:10;" d="M 161.8125 141.257812 L 168.601562 149.445312 "/>
<path style="fill:none;stroke-width:1.2;stroke-linecap:butt;stroke-linejoin:miter;stroke:rgb(100%,0%,0%);stroke-opacity:1;stroke-miterlimit:10;" d="M 168.601562 149.445312 L 175.390625 157.632812 "/>
<path style="fill:none;stroke-width:1.2;stroke-linecap:butt;stroke-linejoin:miter;stroke:rgb(0%,0%,0%);stroke-opacity:1;stroke-miterlimit:10;" d="M 159.882812 142.855469 L 167.277344 122.90625 "/>
<path style=" stroke:none;fill-rule:nonzero;fill:rgb(100%,100%,100%);fill-opacity:1;" d="M 169.464844 153.730469 L 177.464844 153.730469 L 177.464844 164.730469 L 169.464844 164.730469 Z M 169.464844 153.730469 "/>
<g style="fill:rgb(100%,0%,0%);fill-opacity:1;">
  <use xlink:href="#glyph0-3" x="169.464844" y="162.393555"/>
</g>
<path style="fill:none;stroke-width:1.2;stroke-linecap:butt;stroke-linejoin:miter;stroke:rgb(0%,0%,0%);stroke-opacity:1;stroke-miterlimit:10;" d="M 167.277344 122.90625 L 160.488281 114.714844 "/>
<path style="fill:none;stroke-width:1.2;stroke-linecap:butt;stroke-linejoin:miter;stroke:rgb(0%,0%,100%);stroke-opacity:1;stroke-miterlimit:10;" d="M 160.488281 114.714844 L 153.695312 106.527344 "/>
<path style="fill:none;stroke-width:1.2;stroke-linecap:butt;stroke-linejoin:miter;stroke:rgb(0%,0%,0%);stroke-opacity:1;stroke-miterlimit:10;" d="M 162.066406 124.460938 L 156.632812 117.910156 "/>
<path style="fill:none;stroke-width:1.2;stroke-linecap:butt;stroke-linejoin:miter;stroke:rgb(0%,0%,100%);stroke-opacity:1;stroke-miterlimit:10;" d="M 156.632812 117.910156 L 151.199219 111.359375 "/>
<path style="fill:none;stroke-width:1.2;stroke-linecap:butt;stroke-linejoin:miter;stroke:rgb(0%,0%,0%);stroke-opacity:1;stroke-miterlimit:10;" d="M 167.277344 122.90625 L 188.25 119.332031 "/>
<path style=" stroke:none;fill-rule:nonzero;fill:rgb(100%,100%,100%);fill-opacity:1;" d="M 150.695312 101.027344 L 157.695312 101.027344 L 157.695312 112.027344 L 150.695312 112.027344 Z M 150.695312 101.027344 "/>
<g style="fill:rgb(0%,0%,100%);fill-opacity:1;">
  <use xlink:href="#glyph0-1" x="150.695312" y="109.69043"/>
</g>
<path style="fill:none;stroke-width:1.2;stroke-linecap:butt;stroke-linejoin:miter;stroke:rgb(0%,0%,0%);stroke-opacity:1;stroke-miterlimit:10;" d="M 188.25 119.332031 L 201.832031 135.707031 "/>
<path style="fill:none;stroke-width:1.2;stroke-linecap:butt;stroke-linejoin:miter;stroke:rgb(0%,0%,0%);stroke-opacity:1;stroke-miterlimit:10;" d="M 201.832031 135.707031 L 222.804688 132.136719 "/>
<path style="fill:none;stroke-width:1.2;stroke-linecap:butt;stroke-linejoin:miter;stroke:rgb(0%,0%,0%);stroke-opacity:1;stroke-miterlimit:10;" d="M 222.804688 132.136719 L 236.382812 148.511719 "/>
<path style="fill:none;stroke-width:1.2;stroke-linecap:butt;stroke-linejoin:miter;stroke:rgb(0%,0%,0%);stroke-opacity:1;stroke-miterlimit:10;" d="M 228.015625 130.578125 L 238.878906 143.679688 "/>
<path style="fill:none;stroke-width:1.2;stroke-linecap:butt;stroke-linejoin:miter;stroke:rgb(0%,0%,0%);stroke-opacity:1;stroke-miterlimit:10;" d="M 230.195312 112.1875 L 222.804688 132.136719 "/>
<path style="fill:none;stroke-width:1.2;stroke-linecap:butt;stroke-linejoin:miter;stroke:rgb(0%,0%,0%);stroke-opacity:1;stroke-miterlimit:10;" d="M 236.382812 148.511719 L 257.359375 144.9375 "/>
<path style="fill:none;stroke-width:1.2;stroke-linecap:butt;stroke-linejoin:miter;stroke:rgb(0%,0%,0%);stroke-opacity:1;stroke-miterlimit:10;" d="M 257.359375 144.9375 L 264.75 124.988281 "/>
<path style="fill:none;stroke-width:1.2;stroke-linecap:butt;stroke-linejoin:miter;stroke:rgb(0%,0%,0%);stroke-opacity:1;stroke-miterlimit:10;" d="M 253.402344 141.203125 L 259.316406 125.246094 "/>
<path style="fill:none;stroke-width:1.2;stroke-linecap:butt;stroke-linejoin:miter;stroke:rgb(0%,0%,0%);stroke-opacity:1;stroke-miterlimit:10;" d="M 264.75 124.988281 L 251.167969 108.613281 "/>
<path style="fill:none;stroke-width:1.2;stroke-linecap:butt;stroke-linejoin:miter;stroke:rgb(0%,0%,0%);stroke-opacity:1;stroke-miterlimit:10;" d="M 251.167969 108.613281 L 230.195312 112.1875 "/>
<path style="fill:none;stroke-width:1.2;stroke-linecap:butt;stroke-linejoin:miter;stroke:rgb(0%,0%,0%);stroke-opacity:1;stroke-miterlimit:10;" d="M 249.914062 113.90625 L 233.132812 116.761719 "/>
<path style="fill:none;stroke-width:1.2;stroke-linecap:butt;stroke-linejoin:miter;stroke:rgb(0%,0%,0%);stroke-opacity:1;stroke-miterlimit:10;" d="M 131.519531 166.375 L 110.546875 169.949219 "/>
<path style="fill:none;stroke-width:1.2;stroke-linecap:butt;stroke-linejoin:miter;stroke:rgb(0%,0%,0%);stroke-opacity:1;stroke-miterlimit:10;" d="M 130.261719 171.667969 L 113.484375 174.527344 "/>
<path style="fill:none;stroke-width:1.2;stroke-linecap:butt;stroke-linejoin:miter;stroke:rgb(0%,0%,0%);stroke-opacity:1;stroke-miterlimit:10;" d="M 145.101562 182.753906 L 131.519531 166.375 "/>
<path style="fill:none;stroke-width:1.2;stroke-linecap:butt;stroke-linejoin:miter;stroke:rgb(0%,0%,0%);stroke-opacity:1;stroke-miterlimit:10;" d="M 110.546875 169.949219 L 103.152344 189.898438 "/>
<path style="fill:none;stroke-width:1.2;stroke-linecap:butt;stroke-linejoin:miter;stroke:rgb(0%,0%,0%);stroke-opacity:1;stroke-miterlimit:10;" d="M 103.152344 189.898438 L 116.734375 206.277344 "/>
<path style="fill:none;stroke-width:1.2;stroke-linecap:butt;stroke-linejoin:miter;stroke:rgb(0%,0%,0%);stroke-opacity:1;stroke-miterlimit:10;" d="M 108.367188 188.339844 L 119.230469 201.441406 "/>
<path style="fill:none;stroke-width:1.2;stroke-linecap:butt;stroke-linejoin:miter;stroke:rgb(0%,0%,0%);stroke-opacity:1;stroke-miterlimit:10;" d="M 116.734375 206.277344 L 137.707031 202.703125 "/>
<path style="fill:none;stroke-width:1.2;stroke-linecap:butt;stroke-linejoin:miter;stroke:rgb(0%,0%,0%);stroke-opacity:1;stroke-miterlimit:10;" d="M 137.707031 202.703125 L 145.101562 182.753906 "/>
<path style="fill:none;stroke-width:1.2;stroke-linecap:butt;stroke-linejoin:miter;stroke:rgb(0%,0%,0%);stroke-opacity:1;stroke-miterlimit:10;" d="M 133.753906 198.96875 L 139.667969 183.007812 "/>
</g>
</svg>

<svg xmlns="http://www.w3.org/2000/svg" xmlns:xlink="http://www.w3.org/1999/xlink" width="300pt" height="300pt" viewBox="0 0 300 300"><defs><symbol overflow="visible"><path d="M.453 1.594v-7.938h4.5v7.938zm.5-.5h3.5v-6.938h-3.5zm0 0"/></symbol><symbol overflow="visible" id="a"><path d="M.89-6.563H2.08l2.906 5.485v-5.484h.86V0H4.656L1.75-5.484V0H.89zm0 0"/></symbol><symbol overflow="visible" id="b"><path d="M.89-6.563h.876v2.688H5v-2.688h.89V0H5v-3.125H1.766V0H.89zm0 0"/></symbol><symbol overflow="visible" id="c"><path d="M3.547-5.953c-.65 0-1.164.242-1.547.72-.375.48-.563 1.13-.563 1.952 0 .835.188 1.49.563 1.967.383.48.898.72 1.547.72.644 0 1.156-.24 1.53-.72.376-.476.564-1.132.564-1.968 0-.822-.187-1.474-.562-1.954-.375-.477-.887-.72-1.53-.72zm0-.734c.914 0 1.648.312 2.203.937.55.617.828 1.438.828 2.47 0 1.042-.277 1.87-.828 2.483-.555.617-1.29.922-2.203.922-.93 0-1.668-.305-2.22-.922C.774-1.41.5-2.237.5-3.28c0-1.033.273-1.853.828-2.47.55-.625 1.29-.938 2.22-.938zm0 0"/></symbol></defs><g><path fill="#fff" d="M0 0h300v300H0z"/><path d="M35.25 108.016l20.973-3.575M56.223 104.44l6.79 8.193" stroke-width="1.2" stroke="#000" stroke-miterlimit="10" fill="none"/><path d="M63.012 112.633l6.793 8.187M69.805 120.82l10.484-1.79" stroke-width="1.2" stroke="#00f" stroke-miterlimit="10" fill="none"/><path d="M80.29 119.03l10.487-1.784" stroke-width="1.2" stroke="#000" stroke-miterlimit="10" fill="none"/><path d="M62.805 115.32h14v11h-14zm0 0" fill="#fff"/><g fill="#00f"><use xlink:href="#a" x="62.805" y="123.983"/><use xlink:href="#b" x="69.782" y="123.983"/></g><path d="M90.777 117.246l3.696-9.973" stroke-width="1.2" stroke="#000" stroke-miterlimit="10" fill="none"/><path d="M94.473 107.273l3.695-9.976" stroke-width="1.2" stroke="#00f" stroke-miterlimit="10" fill="none"/><path d="M96.21 116.992l2.958-7.98" stroke-width="1.2" stroke="#000" stroke-miterlimit="10" fill="none"/><path d="M99.168 109.012l2.957-7.98M104.36 133.625l-6.794-8.19" stroke-width="1.2" stroke="#00f" stroke-miterlimit="10" fill="none"/><path d="M97.566 125.434l-6.79-8.188" stroke-width="1.2" stroke="#000" stroke-miterlimit="10" fill="none"/><path d="M98.168 97.297l10.488-1.785" stroke-width="1.2" stroke="#00f" stroke-miterlimit="10" fill="none"/><path d="M108.656 95.512l10.485-1.79" stroke-width="1.2" stroke="#000" stroke-miterlimit="10" fill="none"/><path d="M95.168 91.797h7v11h-7zm0 0" fill="#fff"/><use xlink:href="#a" x="95.168" y="100.46" fill="#00f"/><path d="M119.14 93.723l13.583 16.38M116.648 98.56l10.864 13.1M132.723 110.102l-7.39 19.95" stroke-width="1.2" stroke="#000" stroke-miterlimit="10" fill="none"/><path d="M153.695 106.527l-10.484 1.785" stroke-width="1.2" stroke="#00f" stroke-miterlimit="10" fill="none"/><path d="M143.21 108.313l-10.487 1.79M125.332 130.05l-10.488 1.786" stroke-width="1.2" stroke="#000" stroke-miterlimit="10" fill="none"/><path d="M114.844 131.836l-10.485 1.79" stroke-width="1.2" stroke="#00f" stroke-miterlimit="10" fill="none"/><path d="M122.395 125.473l-8.39 1.43" stroke-width="1.2" stroke="#000" stroke-miterlimit="10" fill="none"/><path d="M114.004 126.902l-8.39 1.43" stroke-width="1.2" stroke="#00f" stroke-miterlimit="10" fill="none"/><path d="M125.332 130.05l6.79 8.188" stroke-width="1.2" stroke="#000" stroke-miterlimit="10" fill="none"/><path d="M132.12 138.238l6.79 8.188" stroke-width="1.2" stroke="#00f" stroke-miterlimit="10" fill="none"/><path d="M101.36 128.125h7v11h-7zm0 0" fill="#fff"/><use xlink:href="#a" x="101.359" y="136.788" fill="#00f"/><path d="M138.91 146.426l10.488-1.785" stroke-width="1.2" stroke="#00f" stroke-miterlimit="10" fill="none"/><path d="M149.398 144.64l10.485-1.785" stroke-width="1.2" stroke="#000" stroke-miterlimit="10" fill="none"/><path d="M138.91 146.426l-3.695 9.976" stroke-width="1.2" stroke="#00f" stroke-miterlimit="10" fill="none"/><path d="M135.215 156.402l-3.695 9.973" stroke-width="1.2" stroke="#000" stroke-miterlimit="10" fill="none"/><path d="M135.91 140.926h7v11h-7zm0 0" fill="#fff"/><use xlink:href="#a" x="135.91" y="149.589" fill="#00f"/><path d="M157.957 144.453l6.793 8.188" stroke-width="1.2" stroke="#000" stroke-miterlimit="10" fill="none"/><path d="M164.75 152.64l6.79 8.188" stroke-width="1.2" stroke="#f00" stroke-miterlimit="10" fill="none"/><path d="M161.813 141.258l6.79 8.187" stroke-width="1.2" stroke="#000" stroke-miterlimit="10" fill="none"/><path d="M168.602 149.445l6.79 8.188" stroke-width="1.2" stroke="#f00" stroke-miterlimit="10" fill="none"/><path d="M159.883 142.855l7.394-19.95" stroke-width="1.2" stroke="#000" stroke-miterlimit="10" fill="none"/><path d="M169.465 153.73h8v11h-8zm0 0" fill="#fff"/><use xlink:href="#c" x="169.465" y="162.394" fill="#f00"/><path d="M167.277 122.906l-6.79-8.19" stroke-width="1.2" stroke="#000" stroke-miterlimit="10" fill="none"/><path d="M160.488 114.715l-6.793-8.188" stroke-width="1.2" stroke="#00f" stroke-miterlimit="10" fill="none"/><path d="M162.066 124.46l-5.433-6.55" stroke-width="1.2" stroke="#000" stroke-miterlimit="10" fill="none"/><path d="M156.633 117.91l-5.434-6.55" stroke-width="1.2" stroke="#00f" stroke-miterlimit="10" fill="none"/><path d="M167.277 122.906l20.973-3.574" stroke-width="1.2" stroke="#000" stroke-miterlimit="10" fill="none"/><path d="M150.695 101.027h7v11h-7zm0 0" fill="#fff"/><use xlink:href="#a" x="150.695" y="109.69" fill="#00f"/><path d="M188.25 119.332l13.582 16.375M201.832 135.707l20.973-3.57M222.805 132.137l13.578 16.375M228.016 130.578l10.863 13.102M230.195 112.188l-7.39 19.95M236.383 148.512l20.976-3.575M257.36 144.938l7.39-19.95M253.402 141.203l5.914-15.957M264.75 124.988l-13.582-16.375M251.168 108.613l-20.973 3.575M249.914 113.906l-16.78 2.856M131.52 166.375l-20.973 3.574M130.262 171.668l-16.778 2.86M145.102 182.754l-13.582-16.38M110.547 169.95l-7.395 19.948M103.152 189.898l13.582 16.38M108.367 188.34l10.863 13.1M116.734 206.277l20.973-3.574M137.707 202.703l7.395-19.95M133.754 198.97l5.914-15.962" stroke-width="1.2" stroke="#000" stroke-miterlimit="10" fill="none"/></g></svg>
